svgs/sharp-solid/kitchen-set.svg

<svg xmlns="http://www.w3.org/2000/svg" viewBox="0 0 576 512"><!--! Font Awesome Pro 6.6.0 by @fontawesome - https://fontawesome.com License - https://fontawesome.com/license (Commercial License) Copyright 2024 Fonticons, Inc. --><path d="M240 144A96 96 0 1 0 48 144a96 96 0 1 0 192 0zm44.4 32C269.9 240.1 212.5 288 144 288C64.5 288 0 223.5 0 144S64.5 0 144 0c68.5 0 125.9 47.9 140.4 112l59.6 0 0-16 48 0 104 0 48 0 0 48 0 48-48 0-104 0-48 0 0-16-59.6 0zM144 80a64 64 0 1 1 0 128 64 64 0 1 1 0-128zM424 240l0 32 120 0 0 48-288 0 0-48 120 0 0-32 48 0zM288 352l224 0 0 160-224 0 0-160zM176 320c26.5 0 48 21.5 48 48s-21.5 48-48 48l-16 0 0 32L32 448l0-128 96 0 32 0 16 0zm0 64c8.8 0 16-7.2 16-16s-7.2-16-16-16l-16 0 0 32 16 0zm48 80l0 48L0 512l0-48 224 0z"/></svg>

<svg xmlns="http://www.w3.org/2000/svg" viewBox="0 0 576 512"><!--! Font Awesome Pro 6.4.2 by @fontawesome - https://fontawesome.com License - https://fontawesome.com/license (Commercial License) Copyright 2023 Fonticons, Inc. --><path d="M240 144A96 96 0 1 0 48 144a96 96 0 1 0 192 0zm44.4 32C269.9 240.1 212.5 288 144 288C64.5 288 0 223.5 0 144S64.5 0 144 0c68.5 0 125.9 47.9 140.4 112H344V96h48H496h48v48 48H496 392 344V176H284.4zM144 80a64 64 0 1 1 0 128 64 64 0 1 1 0-128zM424 240v32H544v48H256V272H376V240h48zM288 352H512V512H288V352zM176 320c26.5 0 48 21.5 48 48s-21.5 48-48 48H160v32H32V320h96 32 16zm0 64c8.8 0 16-7.2 16-16s-7.2-16-16-16H160v32h16zm48 80v48H0V464H224z"/></svg>
